X:495
M:C
L:1/8
K:D
E>D E<F D/D/D D:|
g|f>da>d f>da>d|c>Ae>A c>de>g|f>da>d f>da>d|g<b a>g f<d d>g|
f>da>d f>da>d|c<Ae<A c>d e<A| B<dc<e d<fe<g|f<b a>g f<dd||

